!!!COM:	Compere, Loyset
!!!CDT:	~1445///-1518/08/16
!!!OTL:	Hodie nobis cycle-Hodie nobis
!!!AGN:	Motet
!!!SCT:	Com2002a
!!!SCA:	Com2002a
!!!voices:	4
**kern	**text	**kern	**text	**kern	**text	**kern	**text
*staff4	*staff4	*staff3	*staff3	*staff2	*staff2	*staff1	*staff1
*Ivox	*	*Ivox	*	*Ivox	*	*Ivox	*
*I"Bassus	*	*I"Tenor	*	*I"Altus	*	*I"Superius	*
*I'B	*	*I'T	*	*I'A	*	*I'S	*
*clefF4	*	*clefGv2	*	*clefGv2	*	*clefG2	*
*k[b-]	*	*k[b-]	*	*k[b-]	*	*k[b-]	*
*M3/1	*	*M3/1	*	*M3/1	*	*M3/1	*
*met(O)	*	*met(O)	*	*met(O)	*	*met(O)	*
=1-	=1-	=1-	=1-	=1-	=1-	=1-	=1-
0G	Ho-	0G	Ho-	0d	.	0g	Ho-
1D	-di-	1A	-di-	[1f	.	1f	-di-
=2	=2	=2	=2	=2	=2	=2	=2
1G	-e	1B-	-e	0.f]	.	1g	-e
0F	no-	0c	no-	.	.	1.a	no-
.	.	.	.	.	.	4g	.
.	.	.	.	.	.	4a	.
=3	=3	=3	=3	=3	=3	=3	=3
0BB-	-bis	0d	-bis	0f	di-	0b-	-bis
1F	de	1c	de	1f	-e	1a	de
=4	=4	=4	=4	=4	=4	=4	=4
2G	Vir-	2B-	Vir-	2d	de	2g	Vir-
2F	.	2c	.	2.f	Vir-	2.a	.
2D	-gi-	2d	.	.	.	.	.
.	.	.	.	4e	.	4g	.
2G	.	2B-	.	2.d	.	1g	.
1D	-ne	1A	-gi-	.	.	.	.
.	.	.	.	4c	.	.	.
.	.	.	.	2d	-gi-	2f#i	-gi-
=5	=5	=5	=5	=5	=5	=5	=5
2r	.	1G	-ne	2B-	-ne	1g	-ne
1G	Chri-	.	.	2.e-	Chri-	.	.
.	.	1r	.	.	.	1r	.
.	.	.	.	4d	.	.	.
2F	.	.	.	1d	.	.	.
1E	.	1G	Chri-	.	.	1g	Chri-
.	.	.	.	2c	.	.	.
=6	=6	=6	=6	=6	=6	=6	=6
2D	.	1.A	-stus	2d	-stus	1.f	-stus
1F	.	.	.	1c	na-	.	.
4E	.	2B-	.	1f	.	2.b-	.
4D	.	.	.	.	.	.	.
1C	.	1c	.	.	.	.	.
.	.	.	.	.	.	8aL	.
.	.	.	.	.	.	8gJ	.
.	.	.	.	2e	.	2a	.
=7	=7	=7	=7	=7	=7	=7	=7
1BB-	-stus	1d	na-	0f	-sci	1b-	na-
2r	.	1c	.	.	.	2a	.
1F	na-	.	.	.	.	1a	-sci
.	.	2A	-sci-	2r	.	.	.
4E	.	2B-	.	2F	di-	4g	.
4D	.	.	.	.	.	4f	.
=8	=8	=8	=8	=8	=8	=8	=8
1C	-sci	1c	-di-	2G	-gna	1e	.
.	.	.	.	2A	.	.	.
1BB-	di-	1d	.	0B-	.	2d	di-
.	.	.	.	.	.	2f	.
1E-	.	1G	.	.	.	2.g	-gna-
.	.	.	.	.	.	4a	.
=9	=9	=9	=9	=9	=9	=9	=9
2D	-gna-	2d	-gna-	1f	.	2b-	.
2F	.	2c	.	.	.	2.a	.
2G	-tus	2B-	.	2d	.	.	.
.	.	.	.	.	.	4g	.
2C	.	2c	.	2e	.	1g	.
1D	est.	1A	-tus	1d	tus	.	.
.	.	.	.	.	.	2f#i	-tus-
=10	=10	=10	=10	=10	=10	=10	=10
1r	.	0.G	est.	0d	est.	0g	-est.
1.GG	Hic	.	.	.	.	.	.
.	.	.	.	1r	.	1r	.
2BB-	prae-	.	.	.	.	.	.
=11	=11	=11	=11	=11	=11	=11	=11
2AA	-sens	2r	.	0.r	.	0.r	.
2GG	te-	2G	hic	.	.	.	.
1BB-	-sta-	2G	prae-	.	.	.	.
.	.	2B-	-sens	.	.	.	.
1C	.	2A	te-	.	.	.	.
.	.	2G	-sta-	.	.	.	.
=12	=12	=12	=12	=12	=12	=12	=12
1D	-tur	1B-	-tur	0.r	.	0.r	.
2r	.	1c	di-	.	.	.	.
2C	di-	.	.	.	.	.	.
2G	-es,	2.d	-es,	.	.	.	.
2G	cur-	.	.	.	.	.	.
.	.	4d	cur-	.	.	.	.
=13	=13	=13	=13	=13	=13	=13	=13
2.F	-rens	2d	-rens	0.r	.	0.r	.
.	.	2c	per	.	.	.	.
4E	per	.	.	.	.	.	.
2D	an-	2B-	an-	.	.	.	.
2C	-ni	2.A	-ni	.	.	.	.
2D	cir-	.	.	.	.	.	.
.	.	4G	.	.	.	.	.
2BB-	-cu-	[2G	cir-	.	.	.	.
=14	=14	=14	=14	=14	=14	=14	=14
1AA	-lum,	2G]	.	0.r	.	0.r	.
.	.	2F#i	-cu-	.	.	.	.
0GG	.	1G	-lum,	.	.	.	.
.	.	2r	.	.	.	.	.
.	.	2d	quod	.	.	.	.
=15	=15	=15	=15	=15	=15	=15	=15
2D	quod	2d	so-	0.r	.	0.r	.
2D	so-	2A	-lus	.	.	.	.
2AA	-lus	2c	a	.	.	.	.
2C	a	2c	se-	.	.	.	.
2C	se-	2G	-de	.	.	.	.
2GG	-de	2G	Pa-	.	.	.	.
=16	=16	=16	=16	=16	=16	=16	=16
2GG	Pa-	2.B-	-tris	0.r	.	0.r	.
2.BB-	-tris	.	.	.	.	.	.
.	.	4A	.	.	.	.	.
.	.	2F	mun-	.	.	.	.
4AA	.	.	.	.	.	.	.
2FF	.	2F	.	.	.	.	.
*	*	*M2/1	*	*	*	*	*
*	*	*met(3)	*	*	*	*	*
2r	.	3%2B-	-di	.	.	.	.
2FF	mun-	.	.	.	.	.	.
.	.	3c	sa-	.	.	.	.
=17	=17	=17	=17	=17	=17	=17	=17
*9/2	*	*M9/2	*	*M9/2	*	*M9/2	*
*met(3)	*	*met()	*	*met(3)	*	*met(3)	*
!!primary-mensuration: met(3)
1BB-	-di	1d	-lus	1.r	.	1.r	.
2C	sa-	2c	ad-	.	.	.	.
1D	-lus	2B-	-ve-	1.r	.	1.r	.
.	.	2.A	.	.	.	.	.
2C	ad-	.	.	.	.	.	.
.	.	4G	.	.	.	.	.
2BB-	-ve-	2G	.	1.r	.	1.r	.
1AA	-ne	2E	.	.	.	.	.
.	.	2F#i	-ne-	.	.	.	.
=18	=18	=18	=18	=18	=18	=18	=18
1.GG	rit.	1.G	-rit.	1d	Chri-	1.r	.
.	.	.	.	2e	-stus	.	.
1D	Chri-	1.r	.	1f	na-	1.r	.
2E	-stus	.	.	2e	-tus	.	.
1F	na-	1.r	.	2d	est	1.r	.
.	.	.	.	2.c	no-	.	.
2E	-tus	.	.	.	.	.	.
.	.	.	.	4B-	.	.	.
=19	=19	=19	=19	=19	=19	=19	=19
2D	est	2r	.	2B-	.	1.r	.
1C	no-	2r	.	2G	.	.	.
.	.	2r	.	2A	.	.	.
1.BB-	-bis:	2r	.	1.B-	-bis:...	1.r	.
.	.	2r	.	.	.	.	.
.	.	2r	.	.	.	.	.
1C	ve-	1A	...ve-	1.r	.	1.r	.
2C	-ni-	2A	-ni-	.	.	.	.
=20	=20	=20	=20	=20	=20	=20	=20
!	!	!	!	!LO:N:vis=0	!	!LO:N:vis=0	!
1D	-te,	2B-	-te,	1.r	.	1.r	.
.	.	2.A	ad-	.	.	.	.
2C	ad-	.	.	.	.	.	.
.	.	4G	-o-	.	.	.	.
2BB-	-o-	1G	-re-	1.r	.	1.r	.
1AA	-re-	.	.	.	.	.	.
.	.	2F#i	.	.	.	.	.
1GG	-mus,	1.G	-mus.	1.r	.	1.r	.
2G	.	.	.	.	.	.	.
=21	=21	=21	=21	=21	=21	=21	=21
1F	ve-	1c	ve-	1f	...Ve-	1a	...Ve-
2F	-ni-	2c	-ni-	2f	-ni-	2a	-ni-
1BB-	-te	1d	-te,	1f	-te,	1b-	-te,
2F	ad-	2c	ad-	2f	ad-	2a	ad-
2G	-o-	2B-	-o-	1d	-o-	2.g	-o-
1D	-re-	1A	-re-	.	.	.	.
.	.	.	.	.	.	4e	.
.	.	.	.	2d	-re-	2f#i	-re-
=22	=22	=22	=22	=22	=22	=22	=22
1.GG	-mus.	1.G	-mus.	2.B-	-mus.	1g	-mus.
.	.	.	.	4c	.	.	.
.	.	.	.	2d	.	2g	Par-
1.r	.	1.r	.	2.G	Par-	2.b-	.
.	.	.	.	4A	.	4cc	.
.	.	.	.	2B-	-vu-	2dd	-vu-
1.r	.	1.r	.	1c	-lus	2.g	-lus
.	.	.	.	.	.	4a	.
.	.	.	.	2B-	.	2b-	.
=23	=23	=23	=23	=23	=23	=23	=23
1.r	.	1.r	.	1A	fi-	1cc	fi-
.	.	.	.	2G	.	2b-	.
1.r	.	1.r	.	1c	.	2a	.
.	.	.	.	.	.	2.g	.
.	.	.	.	2A	.	.	.
.	.	.	.	.	.	4f	.
1.r	.	1.r	.	2B-	.	1f	.
.	.	.	.	1G	-li-	.	.
.	.	.	.	.	.	2e	-li-
=24	=24	=24	=24	=24	=24	=24	=24
2r	.	2.c	...ho-	1.F	-us...	1.f	-us...
2r	.	.	.	.	.	.	.
.	.	4B-	.	.	.	.	.
2r	.	2c	.	.	.	.	.
2.C	...ho-	1A	-di-	1.r	.	1.r	.
4BB-	.	.	.	.	.	.	.
2C	.	2G	-e	.	.	.	.
1AA	-di-	1c	na-	1.r	.	1.r	.
2GG	-e	2B-	-tus	.	.	.	.
=25	=25	=25	=25	=25	=25	=25	=25
1C	na-	2G	est	2r	.	2%9r	.
.	.	2.A	no-	2r	.	.	.
2BB-	-tus	.	.	2r	.	.	.
.	.	4G	.	.	.	.	.
2GG	est	1G	.	2r	.	.	.
1AA	no-	.	.	2r	.	.	.
.	.	2F#i	.	2r	.	.	.
1.GG	-bis:	1.G	-bis:	1B-	...Et	.	.
.	.	.	.	2G	vo-	.	.
=26	=26	=26	=26	=26	=26	=26	=26
1BB-	et	2%9r	.	2.d	-ca-	2%9r	.
.	.	.	.	4c	.	.	.
2GG	vo-	.	.	2B-	-bi-	.	.
2.D	-ca-	.	.	1A	-tur	.	.
4C	.	.	.	.	.	.	.
2BB-	-bi-	.	.	2G	De-	.	.
1AA	-tur	.	.	1c	.	.	.
2GG	De-	.	.	2B-	-us	.	.
=27	=27	=27	=27	=27	=27	=27	=27
2.C	.	2%9r	.	2.A	for-	2%9r	.
4D	.	.	.	4B-	.	.	.
2E	.	.	.	2c	.	.	.
1F	.	.	.	2d	.	.	.
.	.	.	.	2.c	.	.	.
2D	-us	.	.	.	.	.	.
.	.	.	.	4B-	.	.	.
2E	for-	.	.	1B-	.	.	.
1C	.	.	.	.	.	.	.
.	.	.	.	2A	.	.	.
=28	=28	=28	=28	=28	=28	=28	=28
1BB-	-tis,...	2r	.	1B-	-tis,	1b-	...Et
.	.	2r	.	.	.	.	.
2r	.	2r	.	2r	.	2a	vo-
1.r	.	1B-	et	1.r	.	1g	-ca-
.	.	2A	vo-	.	.	2f	-bi-
1.r	.	1G	-ca-	1.r	.	1b-	-tur
.	.	2F	-bi-	.	.	2cc	.
=29	=29	=29	=29	=29	=29	=29	=29
1.r	.	1B-	-tur	2r	.	1dd	no-
.	.	.	.	2r	.	.	.
.	.	2c	.	2r	.	2cc	-men
1.r	.	2.d	no-	1f	et	1a	e-
.	.	4c	.	.	.	.	.
.	.	2B-	-men	2g	vo-	2b-	.
1.r	.	1A	e-	1a	-ca-	1cc	-ius
.	.	2B-	-ius	2g	-bi-	2b-	E-
=30	=30	=30	=30	=30	=30	=30	=30
1.r	.	2.c	E-	1e	-tur	1g	-ma-
.	.	4B-	.	.	.	.	.
.	.	2A	.	2f	no-	2a	-nu-
1.r	.	1G	-ma-	1g	-men	1b-	-el.
.	.	2A	-nu-	2f	e-	2cc	Ve-
1.r	.	1B-	-e.	1d	-ius	1dd	-ni-
.	.	2c	Ve-	2e	E-	2cc	-te,
=31	=31	=31	=31	=31	=31	=31	=31
1.r	.	1d	-ni-	1f	-ma-	2a	gen-
.	.	.	.	.	.	2.b-	.
.	.	2c	-te,	1e	.	.	.
.	.	.	.	.	.	4a	.
1.r	.	2A	gen-	.	.	1a	.
.	.	1B-	.	1d	-nu-	.	.
.	.	.	.	.	.	2g	.
1.r	.	1.A	-ges,	1e	-el.	1.a	-tes,
.	.	.	.	2r	.	.	.
=32	=32	=32	=32	=32	=32	=32	=32
1.r	.	1A	et	2.e	Ve-	2r	.
.	.	.	.	.	.	2r	.
.	.	.	.	4f	-ni-	.	.
.	.	2B-	ad-	2g	-te,	2r	.
1.r	.	2.A	-o-	1a	gen-	2r	.
.	.	.	.	.	.	2r	.
.	.	4B-	.	.	.	.	.
.	.	2c	.	2g	-tes,	2r	.
1.r	.	1d	-ra-	2.f	et	2.a	et
.	.	.	.	4d	.	4b-	.
.	.	2c	-te	2e	.	2cc	.
=33	=33	=33	=33	=33	=33	=33	=33
1.r	.	2.B-	Do-	2.d	ad-	1dd	ad-
.	.	4G	.	4e	.	.	.
.	.	2A	.	2f	-o-	2cc	-o-
1.r	.	2G	.	2g	-ra-	2b-	-ra-
.	.	1c	.	2.e	.	2.a	.
.	.	.	.	4d	-te	4g	-te
1.r	.	2B-	-mi-	1d	Do-	1g	Do-
.	.	1A	.	.	.	.	.
.	.	.	.	2c	-mi-	2f#i	-mi-
=34	=34	=34	=34	=34	=34	=34	=34
1.r	.	1.G	-num,	1.d	-num,	1g	-num,
.	.	.	.	.	.	.	.
.	.	.	.	.	.	2g	qui-
1GG	...qui-	1G	qui-	1d	qui-	2.b-	-a
.	.	.	.	.	.	4a	.
2GG	-a	2G	-a-	2B-	-a	2g	per
1D	per	1A	-per	1d	per	1f	i-
2G	.	2B-	.	2e	.	2g	-psum
=35	=35	=35	=35	=35	=35	=35	=35
1F	i-	1c	i-	1f	i-	1a	o-
1G	-psum	1B-	.	1d	.	1g	.
1D	.	1A	-psum	1d	-psum	1f	.
1D	o-	2.A	o-	1d	o-	2.f	-mni-
.	.	4B-	.	.	.	4g	.
2C	.	2c	.	2e	-mni-	2a	.
=36	=36	=36	=36	=36	=36	=36	=36
1BB-	-mni-	1d	-mni-	2.f	-a	1b-	-a
.	.	.	.	4e	.	.	.
2F	-a	2c	-a	2f	.	2a	fa-
2G	fac-	2B-	fa-	2d	fa-	2g	.
1F	.	1c	.	2.f	.	2.a	.
.	.	.	.	4e	.	4g	.
2G	-cta	2B-	-cta	2.d	-cta	1g	.
1D	.	1A	.	.	.	.	.
.	.	.	.	4c	.	.	.
.	.	.	.	2d	.	2f#i	-cta
=37	=37	=37	=37	=37	=37	=37	=37
0GGl	sunt.	0Gl	sunt.	2B-	sunt.	0gl	sunt.
.	.	.	.	1d	.	.	.
.	.	.	.	2dl	.	.	.
==	==	==	==	==	==	==	==
*-	*-	*-	*-	*-	*-	*-	*-
!!!RDF**kern: l=long note in original notation
!!!RDF**kern: i=editorial accidental
!!!RDF**kern: i=editorial accidental
!!!RDF**kern: V=start of tuplet marker
!!!RDF**kern: Z=end of tuplet marker
!!!ENC:	Clare Bokulich
!!!END:	2016/04/06/
!!!EED:	Jesse Rodin
!!!EEV:	2016/04/06/
!!!ONB:	Translated from MusicXML and edited on 2016/04/06/ by Craig Sapp
!!muse2ps: C^@{COM}^i2I150v85,85,85,150Q16
